www/assets/images/test_icons/flags/SS.svg

<svg width="21" height="15" viewBox="0 0 21 15" fill="none" xmlns="http://www.w3.org/2000/svg">
<mask id="mask0_3_38" style="mask-type:alpha" maskUnits="userSpaceOnUse" x="0" y="0" width="21" height="15">
<path d="M19 0H2C0.89543 0 0 0.89543 0 2V13C0 14.1046 0.89543 15 2 15H19C20.1046 15 21 14.1046 21 13V2C21 0.89543 20.1046 0 19 0Z" fill="white"/>
</mask>
<g mask="url(#mask0_3_38)">
<path d="M19 0H2C0.89543 0 0 0.89543 0 2V13C0 14.1046 0.89543 15 2 15H19C20.1046 15 21 14.1046 21 13V2C21 0.89543 20.1046 0 19 0Z" fill="white"/>
<path fill-rule="evenodd" clip-rule="evenodd" d="M0 0H21V4H0V0Z" fill="black"/>
<path fill-rule="evenodd" clip-rule="evenodd" d="M0 11H21V15H0V11Z" fill="#059437"/>
<path fill-rule="evenodd" clip-rule="evenodd" d="M0 5H21V10H0V5Z" fill="#DF121B"/>
<path fill-rule="evenodd" clip-rule="evenodd" d="M0 0L12 7.5L0 15V0Z" fill="#0E50B8"/>
<path fill-rule="evenodd" clip-rule="evenodd" d="M4.73299 8.732L3.40299 9.725L3.42299 8.065L2.06799 7.105L3.65299 6.613L4.14599 5.028L5.10599 6.383L6.76599 6.363L5.77199 7.693L6.30499 9.265L4.73299 8.732Z" fill="#FCE206"/>
<path d="M19 0.5H2C1.17157 0.5 0.5 1.17157 0.5 2V13C0.5 13.8284 1.17157 14.5 2 14.5H19C19.8284 14.5 20.5 13.8284 20.5 13V2C20.5 1.17157 19.8284 0.5 19 0.5Z" stroke="black" stroke-opacity="0.1"/>
</g>
</svg>

<svg fill="none" height="15" viewBox="0 0 21 15" width="21" xmlns="http://www.w3.org/2000/svg" xmlns:xlink="http://www.w3.org/1999/xlink"><mask id="a" height="15" maskUnits="userSpaceOnUse" width="21" x="0" y="0"><path d="m19 0h-17c-1.10457 0-2 .89543-2 2v11c0 1.1046.89543 2 2 2h17c1.1046 0 2-.8954 2-2v-11c0-1.10457-.8954-2-2-2z" fill="#fff"/></mask><g mask="url(#a)"><path d="m19 0h-17c-1.10457 0-2 .89543-2 2v11c0 1.1046.89543 2 2 2h17c1.1046 0 2-.8954 2-2v-11c0-1.10457-.8954-2-2-2z" fill="#fff"/><g clip-rule="evenodd" fill-rule="evenodd"><path d="m0 0h21v4h-21z" fill="#000"/><path d="m0 11h21v4h-21z" fill="#059437"/><path d="m0 5h21v5h-21z" fill="#df121b"/><path d="m0 0 12 7.5-12 7.5z" fill="#0e50b8"/><path d="m4.73299 8.732-1.33.993.02-1.66-1.355-.96 1.585-.492.493-1.585.96 1.355 1.66-.02-.994 1.33.533 1.572z" fill="#fce206"/></g><path d="m19 .5h-17c-.82843 0-1.5.67157-1.5 1.5v11c0 .8284.67157 1.5 1.5 1.5h17c.8284 0 1.5-.6716 1.5-1.5v-11c0-.82843-.6716-1.5-1.5-1.5z" stroke="#000" stroke-opacity=".1"/></g></svg>
